X:1
T:Title
%%score 1 { 2 | 3 }
L:1/8
Q:1/4=107
M:4/4
K:Ab
V:1 treble nm="Grand Piano, Soprano"
V:2 bass nm="Choir Pad, Badajoz, 10.10.12.10"
V:3 bass 
V:1
 [Ec]4 [EA]2 [EG]2 | [EG]2 [DF]2 [CE]4 | [B,E]4 [CE]2 [DE]2 | [CE]6 z2 | [Ec]4 [EA]2 [EG]2 | %5
w: By~William~Howard~Doane,~1886 * *|||||
 [EG]2 [DF]2 [Fd]4 | [CE]2 [Ec]2 [Ec]2 [DB]2 | [CA]6 z2 | [EB]4 [=DB]2 [EB]2 | [Ec]3 [DB] [CA]4 | %10
w: |||||
 [EA]4 [FA]2 [EA]2 | [Ed]2 [Ec]2 [EB]4 | [Ec]4 [EA]2 [EG]2 | [EG]2 [DF]2 [Fd]4 | %14
w: ||||
 [CE]2 [Ec]2 [Ec]2 [DB]2 | [CA]8 |] %16
w: ||
V:2
 A,4 C2 A,2 | A,2 A,2 A,4 | G,4 A,2 B,2 | A,6 z2 | A,4 C2 A,2 | A,2 A,2 A,4 | A,4 G,2 G,2 | %7
 A,6 z2 | G,4 A,2 G,2 | A,3 G, A,4 | A,4 A,2 A,2 | G,2 A,2 G,4 | A,4 C2 A,2 | A,2 A,2 A,4 | %14
 A,4 G,2 G,2 | A,8 |] %16
V:3
 A,,4 A,,2 C,2 | D,2 D,2 A,,4 | E,4 E,2 E,2 | A,,6 z2 | A,,4 A,,2 C,2 | D,2 D,2 D,4 | E,4 E,2 E,2 | %7
 A,,6 z2 | E,4 F,2 E,2 | E,3 E, F,4 | C,4 D,2 D,2 | B,,2 A,,2 E,4 | A,,4 A,,2 C,2 | D,2 D,2 D,4 | %14
 E,4 E,2 E,2 | A,,8 |] %16

